gtk-icons/Papirus-Dark-GTK/24x24/actions/application-exit.svg

<?xml version="1.0" encoding="UTF-8" standalone="no"?>
<!-- Created with Inkscape (http://www.inkscape.org/) -->

<svg
   xmlns:osb="http://www.openswatchbook.org/uri/2009/osb"
   xmlns:dc="http://purl.org/dc/elements/1.1/"
   xmlns:cc="http://creativecommons.org/ns#"
   xmlns:rdf="http://www.w3.org/1999/02/22-rdf-syntax-ns#"
   xmlns:svg="http://www.w3.org/2000/svg"
   xmlns="http://www.w3.org/2000/svg"
   xmlns:sodipodi="http://sodipodi.sourceforge.net/DTD/sodipodi-0.dtd"
   xmlns:inkscape="http://www.inkscape.org/namespaces/inkscape"
   sodipodi:docname="application-exit.svg"
   inkscape:export-filename="/home/sam/source-symbolic.png"
   inkscape:export-xdpi="270"
   inkscape:export-ydpi="270"
   height="24"
   id="svg7384"
   style="enable-background:new"
   version="1.1"
   inkscape:version="0.91 r"
   width="24">
  <sodipodi:namedview
     inkscape:bbox-nodes="true"
     inkscape:bbox-paths="false"
     bordercolor="#666666"
     borderlayer="false"
     borderopacity="1"
     inkscape:current-layer="layer12"
     inkscape:cx="-115.98515"
     inkscape:cy="-8.5482795"
     gridtolerance="10"
     inkscape:guide-bbox="true"
     guidetolerance="10"
     id="namedview88"
     inkscape:object-nodes="true"
     inkscape:object-paths="true"
     objecttolerance="10"
     pagecolor="#f7f7f7"
     inkscape:pageopacity="0"
     inkscape:pageshadow="2"
     showborder="true"
     showgrid="false"
     showguides="true"
     inkscape:showpageshadow="false"
     inkscape:snap-bbox="true"
     inkscape:snap-bbox-edge-midpoints="false"
     inkscape:snap-bbox-midpoints="true"
     inkscape:snap-center="false"
     inkscape:snap-global="true"
     inkscape:snap-grids="true"
     inkscape:snap-intersection-paths="true"
     inkscape:snap-midpoints="true"
     inkscape:snap-nodes="true"
     inkscape:snap-object-midpoints="true"
     inkscape:snap-others="true"
     inkscape:snap-page="false"
     inkscape:snap-smooth-nodes="true"
     inkscape:snap-to-guides="true"
     inkscape:window-height="849"
     inkscape:window-maximized="1"
     inkscape:window-width="1600"
     inkscape:window-x="0"
     inkscape:window-y="26"
     inkscape:zoom="4.04">
    <inkscape:grid
       color="#ffffff"
       dotted="false"
       empcolor="#0800ff"
       empopacity="0.4627451"
       empspacing="4"
       enabled="true"
       id="grid4866"
       opacity="0.16470588"
       originx="-303.99998"
       originy="-196"
       snapvisiblegridlinesonly="true"
       spacingx="0.25px"
       spacingy="0.25px"
       type="xygrid"
       visible="true" />
  </sodipodi:namedview>
  <metadata
     id="metadata90">
    <rdf:RDF>
      <cc:Work
         rdf:about="">
        <dc:format>image/svg+xml</dc:format>
        <dc:type
           rdf:resource="http://purl.org/dc/dcmitype/StillImage" />
        <dc:title>Paper Symbolic Icon Theme</dc:title>
      </cc:Work>
    </rdf:RDF>
  </metadata>
  <title
     id="title8473">Paper Symbolic Icon Theme</title>
  <defs
     id="defs7386">
    <linearGradient
       id="linearGradient5606"
       osb:paint="solid">
      <stop
         id="stop5608"
         offset="0"
         style="stop-color:#ffffff;stop-opacity:1;" />
    </linearGradient>
  </defs>
  <g
     inkscape:groupmode="layer"
     id="layer12"
     inkscape:label="actions"
     style="display:inline"
     transform="translate(-545.00018,-19)">
    <path
       style="opacity:0.72;fill:#ffffff;fill-opacity:1;stroke:none"
       d="M 7 5 C 5.892 4.99998 5 5.892 5 7 L 5 9.9941406 L 7 10 L 7 7 L 17 7 L 17 17 L 7 17 L 7 14 L 5 13.994141 L 5 17 C 5 18.108 5.892 19 7 19 L 17 19 C 18.108 19 19 18.108 19 17 L 19 7 C 19 5.892 18.108 5.00002 17 5 L 7 5 z M 12.210938 7.9589844 L 10.826172 9.3457031 L 12.460938 10.980469 L 5 10.958984 L 5 12.958984 L 12.460938 12.980469 L 10.826172 14.615234 L 12.210938 16 L 16.212891 11.958984 L 12.210938 7.9589844 z "
       transform="translate(545.00018,19)"
       id="rect11143" />
  </g>
</svg>

<?xml version="1.0" encoding="UTF-8" standalone="no"?>
<!-- Created with Inkscape (http://www.inkscape.org/) -->
<svg id="svg7384" xmlns:rdf="http://www.w3.org/1999/02/22-rdf-syntax-ns#" style="enable-background:new" xmlns="http://www.w3.org/2000/svg" xmlns:osb="http://www.openswatchbook.org/uri/2009/osb" height="24" width="24" version="1.1" xmlns:cc="http://creativecommons.org/ns#" xmlns:dc="http://purl.org/dc/elements/1.1/">
 <metadata id="metadata90">
  <rdf:RDF>
   <cc:Work rdf:about="">
    <dc:format>image/svg+xml</dc:format>
    <dc:type rdf:resource="http://purl.org/dc/dcmitype/StillImage"/>
    <dc:title>Paper Symbolic Icon Theme</dc:title>
   </cc:Work>
  </rdf:RDF>
 </metadata>
 <title id="title8473">Paper Symbolic Icon Theme</title>
 <g id="layer12" transform="translate(-545 -19)">
  <path id="rect11143" opacity=".72" d="m7 5c-1.108 0-2 0.892-2 2v2.9941l2 0.0059v-3h10v10h-10v-3l-2-0.006v3.006c0 1.108 0.892 2 2 2h10c1.108 0 2-0.892 2-2v-10c0-1.108-0.892-2-2-2h-10zm5.211 2.959l-1.385 1.3867 1.635 1.6343-7.461-0.021v2l7.461 0.021-1.635 1.635 1.385 1.385 4.002-4.041-4.002-4z" transform="translate(545 19)" fill="#fff"/>
 </g>
</svg>
